img/svg/advantages-image-4.svg

<svg width="65" height="66" viewBox="0 0 65 66" fill="none" xmlns="http://www.w3.org/2000/svg">
<g clip-path="url(#clip0)">
<path d="M32.6096 13.824C32.6085 13.824 32.6075 13.824 32.6053 13.824C26.8386 13.824 21.4154 16.0692 17.3365 20.1469C13.2578 24.2257 11.0093 29.649 11.0083 35.4179C11.0062 47.3271 20.6929 57.0182 32.6022 57.0203C32.6065 57.0203 32.6108 57.0203 32.6162 57.0203C34.3009 57.0203 35.9834 56.8217 37.6173 56.4296L37.113 54.3292C35.6443 54.6823 34.1313 54.8605 32.6152 54.8605C32.6109 54.8605 32.6066 54.8605 32.6023 54.8605C21.8843 54.8583 13.1661 46.137 13.1683 35.4189C13.1694 30.2267 15.192 25.3455 18.8637 21.6749C22.5354 18.0043 27.4144 15.9838 32.6056 15.9838C32.6066 15.9838 32.6089 15.9838 32.6099 15.9838C37.9576 15.9849 43.1228 18.2225 46.7825 22.1219L48.3581 20.6445C44.291 16.3112 38.5524 13.8252 32.6096 13.824Z" fill="#2D486B"/>
<path d="M33.6821 7.34454H31.5223V14.9038H33.6821V7.34454Z" fill="#2D486B"/>
<path d="M32.6021 0.865173C29.0287 0.865173 26.1227 3.77117 26.1227 7.34461C26.1227 10.918 29.0287 13.824 32.6021 13.824C36.1755 13.824 39.0815 10.918 39.0815 7.34461C39.0815 3.77117 36.1754 0.865173 32.6021 0.865173ZM32.6021 11.6643C30.2198 11.6643 28.2825 9.72694 28.2825 7.34473C28.2825 4.96253 30.2199 3.02515 32.6021 3.02515C34.9844 3.02515 36.9217 4.96253 36.9217 7.34473C36.9217 9.72694 34.9843 11.6643 32.6021 11.6643Z" fill="#2D486B"/>
<path d="M35.842 6.26471H29.3625V8.42456H35.842V6.26471Z" fill="#2D486B"/>
<path d="M32.6024 37.582C33.7953 37.582 34.7623 36.615 34.7623 35.4222C34.7623 34.2293 33.7953 33.2623 32.6024 33.2623C31.4096 33.2623 30.4426 34.2293 30.4426 35.4222C30.4426 36.615 31.4096 37.582 32.6024 37.582Z" fill="#2D486B"/>
<path d="M39.1934 19.8224L31.6347 34.9398L33.5664 35.9056L41.125 20.7882L39.1934 19.8224Z" fill="#2D486B"/>
<path d="M33.6821 18.1437H31.5223V20.3035H33.6821V18.1437Z" fill="#2D486B"/>
<path d="M33.6821 50.5409H31.5223V52.7008H33.6821V50.5409Z" fill="#2D486B"/>
<path d="M24.9001 19.9206L23.0275 20.9969L24.1092 22.8788L25.9817 21.8026L24.9001 19.9206Z" fill="#2D486B"/>
<path d="M18.1726 25.8476L17.0964 27.7202L18.9783 28.8018L20.0546 26.9292L18.1726 25.8476Z" fill="#2D486B"/>
<path d="M17.4834 34.3423H15.3236V36.5021H17.4834V34.3423Z" fill="#2D486B"/>
<path d="M18.936 42.0683L17.1005 43.1269L18.1795 44.998L20.0151 43.9394L18.936 42.0683Z" fill="#2D486B"/>
<path d="M24.1094 47.9618L23.0284 49.8441L24.9014 50.9197L25.9824 49.0374L24.1094 47.9618Z" fill="#2D486B"/>
<path d="M2.36603 63.4995V14.4297L20.2774 3.48373C21.7924 7.14892 20.6921 11.4891 17.5095 13.9437L12.7774 17.38C11.6651 18.192 11.0032 19.5008 11.0063 20.8756V21.3832C11.0063 23.7655 12.9437 25.7027 15.3259 25.7027V23.5429C14.1348 23.5429 13.1661 22.5743 13.1661 21.383V20.8711C13.1639 20.1822 13.4943 19.5288 14.0484 19.1238L18.8032 15.6714C23.1551 12.315 24.3852 6.18333 21.6627 1.40905C21.5181 1.15531 21.2772 0.970548 20.9943 0.898287C20.7103 0.824887 20.4111 0.870193 20.1617 1.02243L0.723514 12.9016C0.401694 13.0992 0.206299 13.448 0.206299 13.8237V64.5793C0.206299 65.1765 0.690105 65.6592 1.28616 65.6592H49.8819V63.4994H2.36603V63.4995Z" fill="#2D486B"/>
<path d="M50.9605 52.7006H41.2413C37.6679 52.7006 34.7619 55.6066 34.7619 59.1801C34.7619 62.7535 37.6679 65.6595 41.2413 65.6595H50.9605C54.5339 65.6595 57.4399 62.7535 57.4399 59.1801C57.4399 55.6067 54.5339 52.7006 50.9605 52.7006ZM50.9605 63.4998H41.2413C38.859 63.4998 36.9218 61.5624 36.9218 59.1802C36.9218 56.7979 38.8591 54.8606 41.2413 54.8606H50.9605C53.3428 54.8606 55.2801 56.798 55.2801 59.1802C55.2802 61.5624 53.3428 63.4998 50.9605 63.4998Z" fill="#2D486B"/>
<path d="M55.2803 41.9016H45.5612C41.9877 41.9016 39.0817 44.8076 39.0817 48.3811C39.0817 51.9545 41.9877 54.8605 45.5612 54.8605H55.2803C58.8537 54.8605 61.7597 51.9545 61.7597 48.3811C61.7597 44.8076 58.8536 41.9016 55.2803 41.9016ZM55.2803 52.7006H45.5612C43.1788 52.7006 41.2416 50.7633 41.2416 48.3811C41.2416 45.9987 43.179 44.0615 45.5612 44.0615H55.2803C57.6626 44.0615 59.5999 45.9988 59.5999 48.3811C59.5999 50.7634 57.6625 52.7006 55.2803 52.7006Z" fill="#2D486B"/>
<path d="M58.52 31.1026H48.8008C45.2274 31.1026 42.3214 34.0086 42.3214 37.582C42.3214 41.1555 45.2274 44.0615 48.8008 44.0615H58.52C62.0934 44.0615 64.9994 41.1555 64.9994 37.582C64.9994 34.0086 62.0933 31.1026 58.52 31.1026ZM58.52 41.9016H48.8008C46.4185 41.9016 44.4812 39.9642 44.4812 37.582C44.4812 35.1998 46.4186 33.2625 48.8008 33.2625H58.52C60.9023 33.2625 62.8395 35.1998 62.8395 37.582C62.8395 39.9642 60.9022 41.9016 58.52 41.9016Z" fill="#2D486B"/>
<path d="M58.52 20.3035H48.8008C45.2274 20.3035 42.3214 23.2095 42.3214 26.7829C42.3214 30.3563 45.2274 33.2623 48.8008 33.2623H58.52C62.0934 33.2623 64.9994 30.3563 64.9994 26.7829C64.9994 23.2096 62.0933 20.3035 58.52 20.3035ZM58.52 31.1026H48.8008C46.4185 31.1026 44.4812 29.1652 44.4812 26.783C44.4812 24.4008 46.4186 22.4634 48.8008 22.4634H58.52C60.9023 22.4634 62.8395 24.4008 62.8395 26.783C62.8395 29.1652 60.9022 31.1026 58.52 31.1026Z" fill="#2D486B"/>
<path d="M18.2463 14.1413L16.7191 15.6685L19.9591 18.9085L21.4863 17.3813L18.2463 14.1413Z" fill="#2D486B"/>
<path d="M15.0067 17.3807L13.4794 18.9079L16.7194 22.1479L18.2466 20.6206L15.0067 17.3807Z" fill="#2D486B"/>
<path d="M51.7241 17.3802L48.4843 14.1405C48.062 13.7182 47.3796 13.7182 46.9574 14.1405L43.7177 17.3802L45.2446 18.9072L47.7209 16.431L49.4336 18.1437L46.9574 20.62L48.4843 22.1469L51.7241 18.9072C52.1464 18.4849 52.1464 17.8024 51.7241 17.3802Z" fill="#2D486B"/>
</g>
<defs>
<clipPath id="clip0">
<rect x="0.20459" y="0.864258" width="64.7952" height="64.7952" fill="white"/>
</clipPath>
</defs>
</svg>

<svg width="65" height="66" viewBox="0 0 65 66" fill="none" xmlns="http://www.w3.org/2000/svg"><g clip-path="url(#clip0)" fill="#2D486B"><path d="M32.61 13.824h-.005a21.456 21.456 0 00-15.268 6.323 21.462 21.462 0 00-6.329 15.27c-.002 11.91 9.685 21.601 21.594 21.603h.014c1.685 0 3.367-.198 5.001-.59l-.504-2.1a19.261 19.261 0 01-4.498.53h-.013c-10.718-.002-19.436-8.723-19.434-19.441a19.313 19.313 0 015.696-13.744 19.307 19.307 0 0113.742-5.691h.004a19.514 19.514 0 0114.172 6.138l1.576-1.477a21.682 21.682 0 00-15.748-6.821z"/><path d="M33.682 7.345h-2.16v7.559h2.16v-7.56z"/><path d="M32.602.865a6.486 6.486 0 00-6.48 6.48 6.486 6.486 0 006.48 6.479 6.486 6.486 0 006.48-6.48 6.486 6.486 0 00-6.48-6.479zm0 10.8a4.324 4.324 0 01-4.32-4.32 4.324 4.324 0 014.32-4.32 4.324 4.324 0 014.32 4.32 4.324 4.324 0 01-4.32 4.32z"/><path d="M35.842 6.265h-6.48v2.16h6.48v-2.16zm-3.24 31.317a2.16 2.16 0 100-4.32 2.16 2.16 0 000 4.32z"/><path d="M39.193 19.822L31.635 34.94l1.931.966 7.559-15.118-1.932-.966zm-5.511-1.678h-2.16v2.16h2.16v-2.16zm0 32.396h-2.16v2.16h2.16v-2.16zM24.9 19.92l-1.872 1.077 1.081 1.882 1.873-1.076L24.9 19.92zm-6.727 5.928l-1.077 1.872 1.882 1.082 1.077-1.873-1.882-1.081zm-.69 8.494h-2.16v2.16h2.16v-2.16zm1.453 7.726l-1.835 1.059 1.079 1.871 1.835-1.059-1.079-1.87zm5.174 5.894l-1.082 1.882 1.873 1.076 1.081-1.883-1.873-1.075z"/><path d="M2.366 63.5V14.43L20.277 3.484c1.515 3.665.415 8.005-2.768 10.46l-4.732 3.436a4.331 4.331 0 00-1.77 3.496v.507a4.324 4.324 0 004.319 4.32v-2.16a2.162 2.162 0 01-2.16-2.16v-.512a2.162 2.162 0 01.882-1.747l4.755-3.453c4.352-3.356 5.582-9.488 2.86-14.262a1.077 1.077 0 00-1.501-.387L.724 12.902a1.082 1.082 0 00-.518.922v50.755c0 .598.484 1.08 1.08 1.08h48.596V63.5H2.366z"/><path d="M50.96 52.7h-9.719a6.486 6.486 0 00-6.48 6.48 6.486 6.486 0 006.48 6.48h9.72a6.486 6.486 0 006.479-6.48 6.486 6.486 0 00-6.48-6.48zm0 10.8h-9.719a4.324 4.324 0 01-4.32-4.32 4.324 4.324 0 014.32-4.32h9.72a4.324 4.324 0 014.32 4.32 4.324 4.324 0 01-4.32 4.32z"/><path d="M55.28 41.902h-9.719a6.486 6.486 0 00-6.48 6.48 6.486 6.486 0 006.48 6.479h9.72a6.486 6.486 0 006.479-6.48 6.486 6.486 0 00-6.48-6.48zm0 10.799h-9.719a4.324 4.324 0 01-4.32-4.32 4.324 4.324 0 014.32-4.32h9.72a4.324 4.324 0 014.319 4.32 4.324 4.324 0 01-4.32 4.32z"/><path d="M58.52 31.103H48.8a6.486 6.486 0 00-6.479 6.479 6.486 6.486 0 006.48 6.48h9.719a6.486 6.486 0 006.48-6.48 6.486 6.486 0 00-6.48-6.48zm0 10.799H48.8a4.324 4.324 0 01-4.319-4.32 4.324 4.324 0 014.32-4.32h9.719a4.324 4.324 0 014.32 4.32 4.324 4.324 0 01-4.32 4.32z"/><path d="M58.52 20.303H48.8a6.486 6.486 0 00-6.479 6.48 6.486 6.486 0 006.48 6.48h9.719a6.486 6.486 0 006.48-6.48 6.486 6.486 0 00-6.48-6.48zm0 10.8H48.8a4.324 4.324 0 01-4.319-4.32 4.324 4.324 0 014.32-4.32h9.719a4.324 4.324 0 014.32 4.32 4.324 4.324 0 01-4.32 4.32zM18.246 14.141l-1.527 1.527 3.24 3.24 1.527-1.527-3.24-3.24zm-3.239 3.239l-1.528 1.528 3.24 3.24 1.528-1.527-3.24-3.24z"/><path d="M51.724 17.38l-3.24-3.24a1.078 1.078 0 00-1.527 0l-3.24 3.24 1.528 1.527 2.476-2.476 1.713 1.713-2.477 2.476 1.527 1.527 3.24-3.24a1.079 1.079 0 000-1.527z"/></g><defs><clipPath id="clip0"><path fill="#fff" d="M.205.864H65v64.795H.205z"/></clipPath></defs></svg>
